src/categories-icons-sprite/categories/svg-cat-home-chemic.svg

<svg width="36" height="36" viewBox="0 0 36 36" fill="none" xmlns="http://www.w3.org/2000/svg">
<path class="p-E3584B" d="M26.2852 6.96827C26.0269 7.19314 25.6387 7.11325 25.4487 6.82838C25.2581 6.54287 25.3404 6.16036 25.5888 5.9235C26.2856 5.25913 26.6897 4.33214 26.6895 3.35165V1.86206H27.9309V3.35165C27.9314 4.74818 27.3235 6.06437 26.2852 6.96827Z" fill="#4D98CB"/>
<path class="p-4398D1" d="M32.8962 31.0346H26.0687C24.6976 31.0346 23.5859 29.9229 23.5859 28.5519V21.7243L28.5514 13.6554L30.4135 7.44849H34.1376L35.379 14.276V28.5519C35.379 29.9229 34.2673 31.0346 32.8962 31.0346Z" fill="#58ADE5"/>
<path class="p-D6D9DB" d="M36.0005 4.9655H28.5522C28.1731 3.44924 26.9545 2.28727 25.4221 1.98056L24.8281 1.86206V0H31.035C33.7775 0 36.0005 2.22302 36.0005 4.9655Z" fill="#B9DFFC"/>
<path class="p-E3584B" d="M30.4141 4.96558H34.1382V7.44833H30.4141V4.96558Z" fill="#76B7E2"/>
<path class="p-3E8DC2" d="M23.5859 27.0687V28.5516C23.5859 29.9227 24.6976 31.0344 26.0687 31.0344H32.8962C34.2673 31.0344 35.379 29.9227 35.379 28.5516V14.2758L35.3435 14.0815C32.1528 19.0183 28.182 23.4043 23.5859 27.0687Z" fill="#4D98CB"/>
<path class="p-FFC24F" d="M11.1724 31.0344H2.48275C1.11166 31.0344 7.12557e-07 29.9227 7.12557e-07 28.5516V19.6641C-0.000302358 18.9713 0.0960739 18.2818 0.286705 17.6156L1.24138 14.2758L0.151536 11.006C0.0509165 10.705 7.12557e-07 10.3898 7.12557e-07 10.0725C-0.000302358 9.19635 0.389143 8.36503 1.06256 7.80465L3.72413 5.58618H9.931L12.5926 7.80465C13.266 8.36503 13.6554 9.19635 13.6551 10.0725C13.6548 10.3889 13.6039 10.7032 13.5036 11.0036L12.4138 14.2758L13.3684 17.6175C13.5591 18.2836 13.6554 18.9731 13.6551 19.6659V28.5516C13.6551 29.9227 12.5435 31.0344 11.1724 31.0344Z" fill="#58ADE5"/>
<path class="p-FFB64F" d="M12.4137 14.2758L13.5036 11.006C13.8879 9.85314 13.5263 8.58236 12.5926 7.80468L11.6427 7.01367C9.50519 17.3053 4.30814 23.1343 0 26.3171V28.5516C0 29.9227 1.11166 31.0344 2.48275 31.0344H11.1724C12.5435 31.0344 13.6551 29.9227 13.6551 28.5516V19.6641C13.6554 18.9713 13.5591 18.2818 13.3684 17.6157L12.4137 14.2758Z" fill="#4D98CB"/>
<path class="p-4398D1" d="M9.93051 5.58635H3.72363V3.72429L4.96501 2.48291H8.68913L9.93051 3.72429V5.58635Z" fill="#4D98CB"/>
<path class="p-4398D1" d="M4.96582 1C4.96582 0.447715 5.41354 0 5.96582 0H7.68994C8.24223 0 8.68994 0.447715 8.68994 1V2.48275H4.96582V1Z" fill="#4D98CB"/>
<path class="p-FF7230" d="M9.93051 9.931C9.93051 8.90269 8.54093 7.16895 6.82707 7.16895C5.11321 7.16895 3.72363 8.90269 3.72363 9.931C3.72363 10.9593 5.11321 12.6931 6.82707 12.6931C8.54093 12.6931 9.93051 10.9593 9.93051 9.931Z" fill="#A1D1FD"/>
<path class="p-FF7230" d="M8.69027 27.931H4.96615C3.59506 27.931 2.4834 26.8193 2.4834 25.4483V18L9.52523 20.5149C10.5132 20.868 11.173 21.8038 11.173 22.8531V25.4483C11.173 26.8193 10.0614 27.931 8.69027 27.931Z" fill="#B9DFFC"/>
<path class="p-FC641C" d="M4.96615 27.9309H8.69027C10.0614 27.9309 11.173 26.8192 11.173 25.4481V22.8529C11.173 21.8037 10.5132 20.8678 9.52523 20.5147L6.54999 19.4521C5.37529 21.1936 4.01148 22.7999 2.4834 24.2416V25.4481C2.4834 26.8192 3.59506 27.9309 4.96615 27.9309Z" fill="#A1D1FD"/>
<path class="p-4398D1" d="M15.5181 3.72412H20.4836C20.8264 3.72412 21.1043 4.00204 21.1043 4.34481V7.44825H14.8975V4.34481C14.8975 4.00204 15.1754 3.72412 15.5181 3.72412Z" fill="#65B3E7"/>
<path class="p-FF7230" d="M25.0816 12.0812L22.3449 9.93124V7.44849H13.6553V9.93124L12.6776 11.0714C6.64832 18.1056 6.03339 28.2915 11.1725 36.0001H26.069L27.6208 34.0599C30.2154 30.8152 31.4067 26.6686 30.9297 22.5414C30.453 18.4142 28.3472 14.6485 25.081 12.0812H25.0816ZM27.2774 28.3558C27.0577 28.9753 26.3867 29.3095 25.7599 29.1113C25.1329 28.9131 24.7755 28.2542 24.9519 27.6208C25.7881 24.6923 25.1944 21.5406 23.3493 19.1173L23.0296 18.6978C22.5913 18.0972 22.7113 17.2567 23.2999 16.8024C23.8888 16.3481 24.7322 16.4457 25.202 17.0219L25.4502 17.3398C27.899 20.4593 28.5879 24.6126 27.2774 28.3558Z" fill="#B9DFFC"/>
<path class="p-DE5718" d="M15.5166 9.93099C15.5166 9.58819 15.7945 9.3103 16.1373 9.3103H21.7235C22.0663 9.3103 22.3442 9.58819 22.3442 9.93099C22.3442 10.2738 22.0663 10.5517 21.7235 10.5517H16.1373C15.7945 10.5517 15.5166 10.2738 15.5166 9.93099Z" fill="#5FBEFF"/>
<path class="p-FA6823" d="M28.0897 15.2173C27.6203 16.4547 27.0678 17.6591 26.4362 18.8223C28.0734 21.7315 28.3801 25.2044 27.2778 28.3554C27.0581 28.9748 26.3871 29.3091 25.7603 29.1109C25.1333 28.9127 24.776 28.2538 24.9523 27.6204C25.5109 25.6438 25.4239 23.5402 24.7038 21.6166C20.2629 27.965 14.0615 31.6455 9.79883 33.5773C10.2019 34.4147 10.6611 35.2242 11.1729 35.9997H26.0695L27.6212 34.0595C31.9921 28.5969 32.1833 20.8902 28.0891 15.2173H28.0897Z" fill="#A1D1FD"/>
<path class="p-FFA217" d="M17.6631 18.0297C17.467 18.0124 17.2697 18 17.0691 18C13.9559 17.9988 11.2768 20.1997 10.6731 23.254C10.0697 26.3081 11.7105 29.3624 14.5902 30.5456C17.4697 31.7285 20.7841 30.7098 22.5019 28.1134C21.6378 22.9779 19.6103 19.8805 17.6631 18.0297Z" fill="#5FBEFF"/>
<path class="p-CF4E42" d="M30.4141 4.96558H34.1382V6.20695H30.4141V4.96558Z" fill="#4D98CB"/>
</svg>

<svg width="36" height="36" fill="none" xmlns="http://www.w3.org/2000/svg"><path class="p-E3584B" d="M26.285 6.968c-.258.225-.646.145-.836-.14-.19-.285-.109-.668.14-.905a3.553 3.553 0 001.1-2.571v-1.49h1.242v1.49a4.794 4.794 0 01-1.646 3.616z" fill="#4D98CB"/><path class="p-4398D1" d="M32.896 31.035H26.07a2.483 2.483 0 01-2.483-2.483v-6.828l4.965-8.069 1.863-6.207h3.724l1.241 6.828v14.276a2.483 2.483 0 01-2.483 2.483z" fill="#58ADE5"/><path class="p-D6D9DB" d="M36 4.965h-7.448a4.045 4.045 0 00-3.13-2.984l-.594-.119V0h6.207a4.965 4.965 0 014.966 4.965z" fill="#B9DFFC"/><path class="p-E3584B" d="M30.414 4.966h3.724v2.482h-3.724V4.966z" fill="#76B7E2"/><path class="p-3E8DC2" d="M23.586 27.069v1.483a2.483 2.483 0 002.483 2.482h6.827a2.483 2.483 0 002.483-2.482V14.276l-.035-.194a54.318 54.318 0 01-11.758 12.987z" fill="#4D98CB"/><path class="p-FFC24F" d="M11.172 31.034h-8.69A2.483 2.483 0 010 28.552v-8.888c0-.693.096-1.382.287-2.048l.954-3.34-1.09-3.27a2.95 2.95 0 01.911-3.201l2.662-2.219h6.207l2.662 2.219a2.95 2.95 0 01.91 3.199l-1.09 3.272.955 3.341a7.43 7.43 0 01.287 2.049v8.886a2.483 2.483 0 01-2.483 2.482z" fill="#58ADE5"/><path class="p-FFB64F" d="M12.414 14.276l1.09-3.27a2.952 2.952 0 00-.911-3.201l-.95-.791C9.505 17.305 4.308 23.134 0 26.317v2.235a2.483 2.483 0 002.483 2.482h8.69a2.483 2.483 0 002.482-2.482v-8.888a7.43 7.43 0 00-.287-2.048l-.954-3.34z" fill="#4D98CB"/><path class="p-4398D1" d="M9.93 5.586H3.725V3.724l1.241-1.241h3.724l1.242 1.241v1.862zM4.966 1a1 1 0 011-1H7.69a1 1 0 011 1v1.483H4.966V1z" fill="#4D98CB"/><path class="p-FF7230" d="M9.93 9.931c0-1.028-1.39-2.762-3.103-2.762-1.714 0-3.103 1.734-3.103 2.762s1.39 2.762 3.103 2.762c1.714 0 3.104-1.734 3.104-2.762z" fill="#A1D1FD"/><path class="p-FF7230" d="M8.69 27.931H4.966a2.483 2.483 0 01-2.483-2.483V18l7.042 2.515a2.483 2.483 0 011.648 2.338v2.595a2.483 2.483 0 01-2.483 2.483z" fill="#B9DFFC"/><path class="p-FC641C" d="M4.966 27.93H8.69a2.483 2.483 0 002.483-2.482v-2.595c0-1.05-.66-1.985-1.648-2.338L6.55 19.452a28.482 28.482 0 01-4.067 4.79v1.206a2.483 2.483 0 002.483 2.483z" fill="#A1D1FD"/><path class="p-4398D1" d="M15.518 3.724h4.966a.62.62 0 01.62.62v3.104h-6.206V4.345a.62.62 0 01.62-.62z" fill="#65B3E7"/><path class="p-FF7230" d="M25.082 12.081l-2.737-2.15V7.448h-8.69v2.483l-.977 1.14a20.68 20.68 0 00-1.506 24.93H26.07l1.552-1.941a15.58 15.58 0 00-2.54-21.979zm2.195 16.275a1.22 1.22 0 01-2.325-.735 9.66 9.66 0 00-1.603-8.504l-.32-.42a1.372 1.372 0 012.173-1.675l.248.318a11.622 11.622 0 011.827 11.016z" fill="#B9DFFC"/><path class="p-DE5718" d="M15.517 9.931a.62.62 0 01.62-.62h5.587a.62.62 0 110 1.24h-5.587a.62.62 0 01-.62-.62z" fill="#5FBEFF"/><path class="p-FA6823" d="M28.09 15.217a29.43 29.43 0 01-1.654 3.605 11.617 11.617 0 01.842 9.533 1.22 1.22 0 01-2.326-.735 9.644 9.644 0 00-.248-6.003c-4.441 6.348-10.643 10.028-14.905 11.96.403.838.862 1.647 1.374 2.423H26.07l1.551-1.94a15.572 15.572 0 00.468-18.843z" fill="#A1D1FD"/><path class="p-FFA217" d="M17.663 18.03a6.517 6.517 0 104.839 10.084c-.864-5.136-2.892-8.233-4.839-10.084z" fill="#5FBEFF"/><path class="p-CF4E42" d="M30.414 4.966h3.724v1.24h-3.724v-1.24z" fill="#4D98CB"/></svg>
